X: 28
T: Le Halle Place
C:Chris Leslie
M:4/4
L:1/8
S:http://lesters-tune-a-day.blogspot.co.uk/2015/05/tune-416-le-halle-place.html 2015-5-25
N:An Adderbury morris tune composed by Chris Leslie in 2000.
K:G
|: G3A B2G2 | E2F2 G4 |1 D2G2 G2AB | c2B2 B2A2 :|2 d3e  dcBA | G2B2 G4 :|
|: d3e dBGB | c2c2 c4 |1 B3c  d2B2 | AGFE D4   :|2 cBAG FGAF | G2B2 G4 :|


